X:4
T:Cacharpaya del Indio
R:waynu
C:Nicolas Garcia
O:Peru
Z:id:hn-waynu-4
M:4/4
L:1/8
Q:1/4=90
K:Em
[M:4/4] Be ed/ee/f g>g | f/ed/ BA/BB/e d>d |
AG/F/ E/FGGG/ AF |[M:2/4] E/e/B/e/ Be :|
|:[M:4/4] Ac cB/cc/d e>e | d/ed/ BA/BB/e d>d |
AG/F/ E/FGGG/ AF |1 [M:2/4] E/e/B/e/ Be :|2 [M:3/4] E3/eef/ g>g ||
|:[M:4/4] f/ed/ BA/BB/e d2 | AG/F/ E/FGGG/ AF |
[1[M:3/4] E3/eef/ g>g :|2 [M:2/4] E/e/B/e/ Be ||

